svg/fluentui-system-icons/ic_fluent_walkie_talkie_20_regular.svg

<svg width="20" height="20" viewBox="0 0 20 20" fill="none" xmlns="http://www.w3.org/2000/svg">
<path d="M7.5 6C7.22386 6 7 6.22386 7 6.5V9.5C7 9.77614 7.22386 10 7.5 10H12.5C12.7761 10 13 9.77614 13 9.5V6.5C13 6.22386 12.7761 6 12.5 6H7.5ZM8 9V7H12V9H8Z" fill="#212121"/>
<path d="M8 12.5C8 12.2239 8.22386 12 8.5 12H11.5C11.7761 12 12 12.2239 12 12.5C12 12.7761 11.7761 13 11.5 13H8.5C8.22386 13 8 12.7761 8 12.5Z" fill="#212121"/>
<path d="M8 1.5C8 1.22386 7.77614 1 7.5 1C7.22386 1 7 1.22386 7 1.5V3H5.5C4.67157 3 4 3.67157 4 4.5V11.5C4 11.5987 4.02922 11.6952 4.08397 11.7774L6 14.6514V16.5C6 17.3284 6.67157 18 7.5 18H12.5C13.3284 18 14 17.3284 14 16.5V14.6514L15.916 11.7774C15.9708 11.6952 16 11.5987 16 11.5V4.5C16 3.67157 15.3284 3 14.5 3H8V1.5ZM5.5 4H14.5C14.7761 4 15 4.22386 15 4.5V11.3486L13.084 14.2226C13.0292 14.3048 13 14.4013 13 14.5V16.5C13 16.7761 12.7761 17 12.5 17H7.5C7.22386 17 7 16.7761 7 16.5V14.5C7 14.4013 6.97078 14.3048 6.91603 14.2226L5 11.3486V4.5C5 4.22386 5.22386 4 5.5 4Z" fill="#212121"/>
</svg>

<svg xmlns="http://www.w3.org/2000/svg" width="20" height="20"><path d="M7.5 6a.5.5 0 0 0-.5.5v3a.5.5 0 0 0 .5.5h5a.5.5 0 0 0 .5-.5v-3a.5.5 0 0 0-.5-.5h-5ZM8 9V7h4v2H8Zm0 3.5a.5.5 0 0 1 .5-.5h3a.5.5 0 0 1 0 1h-3a.5.5 0 0 1-.5-.5Z"/><path d="M8 1.5a.5.5 0 0 0-1 0V3H5.5A1.5 1.5 0 0 0 4 4.5v7a.5.5 0 0 0 .084.277L6 14.651V16.5A1.5 1.5 0 0 0 7.5 18h5a1.5 1.5 0 0 0 1.5-1.5v-1.849l1.916-2.874A.5.5 0 0 0 16 11.5v-7A1.5 1.5 0 0 0 14.5 3H8V1.5ZM5.5 4h9a.5.5 0 0 1 .5.5v6.849l-1.916 2.874A.5.5 0 0 0 13 14.5v2a.5.5 0 0 1-.5.5h-5a.5.5 0 0 1-.5-.5v-2a.5.5 0 0 0-.084-.277L5 11.349V4.5a.5.5 0 0 1 .5-.5Z"/></svg>
